_uploads/ornament-dc-solid.svg

<svg width="40" height="40" viewBox="0 0 40 40" fill="none" xmlns="http://www.w3.org/2000/svg">
<path d="M20 0C9 0 0 4.71551 0 10.49C0 16.2645 9 21 20 21C31 21 40 16.2945 40 10.49C40 4.68554 31.06 0 20 0ZM13.26 14.9857H8.26V5.99429H13.26C16.71 5.99429 18.91 7.6627 18.91 10.48C18.91 13.2973 16.73 14.9857 13.28 14.9857H13.26ZM26.76 15.2854C23.37 15.2854 21.09 13.5271 21.09 10.5C21.09 7.47288 23.37 5.72455 26.86 5.72455C27.8122 5.67206 28.7624 5.85739 29.6249 6.2638C30.4874 6.67021 31.2349 7.2849 31.8 8.05233L29.55 9.21123C29.2598 8.7647 28.8558 8.40345 28.3795 8.16465C27.9032 7.92585 27.3718 7.81812 26.84 7.85252C24.99 7.85252 23.76 8.78164 23.76 10.5C23.76 12.2184 24.99 13.1575 26.84 13.1575C27.3819 13.199 27.9249 13.0927 28.411 12.8498C28.8971 12.607 29.3081 12.2368 29.6 11.7788L31.84 12.9377C31.2596 13.7197 30.4926 14.3442 29.6088 14.7543C28.725 15.1643 27.7525 15.3469 26.78 15.2854H26.76Z" fill="black"/>
<path d="M12.99 8.08002H10.8V12.9H12.99C14.91 12.9 16.17 12.08 16.17 10.49C16.17 8.90002 14.91 8.08002 12.99 8.08002Z" fill="black"/>
<path fill-rule="evenodd" clip-rule="evenodd" d="M39 16.8082V10H40V16.8082C40 22.4442 31.0451 27 20 27C8.95492 27 0 22.4544 0 16.8183V10H1V16.8183C1 19.0633 2.80576 21.3483 6.31145 23.1314C9.76297 24.8869 14.6011 26 20 26C25.3985 26 30.2365 24.8845 33.6881 23.1265C37.1937 21.341 39 19.0535 39 16.8082Z" fill="black"/>
<path fill-rule="evenodd" clip-rule="evenodd" d="M39 23.4077V17H40V23.4077C40 28.7122 31.0451 33 20 33C8.95492 33 0 28.7122 0 23.4077V17H1V23.4077C1 25.4553 2.76155 27.5997 6.29036 29.2913C9.74725 30.9484 14.5932 32 20 32C25.4068 32 30.2528 30.9484 33.7096 29.2913C37.2385 27.5997 39 25.4553 39 23.4077Z" fill="black"/>
<path fill-rule="evenodd" clip-rule="evenodd" d="M39 29.8082V23H40V29.8082C40 35.4442 31.0451 40 20 40C8.95492 40 0 35.4442 0 29.8082V23H1V29.8082C1 32.0535 2.80625 34.341 6.31195 36.1265C9.76346 37.8845 14.6015 39 20 39C25.3985 39 30.2365 37.8845 33.6881 36.1265C37.1937 34.341 39 32.0535 39 29.8082Z" fill="black"/>
</svg>

<svg width="40" height="40" fill="none" xmlns="http://www.w3.org/2000/svg"><path d="M20 0C9 0 0 4.716 0 10.49 0 16.265 9 21 20 21s20-4.706 20-10.51C40 4.686 31.06 0 20 0zm-6.74 14.986h-5V5.994h5c3.45 0 5.65 1.669 5.65 4.486 0 2.817-2.18 4.506-5.63 4.506h-.02zm13.5.3c-3.39 0-5.67-1.759-5.67-4.786 0-3.027 2.28-4.775 5.77-4.775a5.745 5.745 0 0 1 4.94 2.327l-2.25 1.16a2.999 2.999 0 0 0-2.71-1.36c-1.85 0-3.08.93-3.08 2.648s1.23 2.658 3.08 2.658a3.002 3.002 0 0 0 2.76-1.38l2.24 1.16a5.84 5.84 0 0 1-5.06 2.347h-.02z" fill="#000"/><path d="M12.99 8.08H10.8v4.82h2.19c1.92 0 3.18-.82 3.18-2.41 0-1.59-1.26-2.41-3.18-2.41z" fill="#000"/><path fill-rule="evenodd" clip-rule="evenodd" d="M39 16.808V10h1v6.808C40 22.444 31.045 27 20 27S0 22.454 0 16.818V10h1v6.818c0 2.245 1.806 4.53 5.311 6.313C9.763 24.887 14.601 26 20 26c5.398 0 10.236-1.116 13.688-2.873C37.194 21.34 39 19.053 39 16.808z" fill="#000"/><path fill-rule="evenodd" clip-rule="evenodd" d="M39 23.408V17h1v6.408C40 28.712 31.045 33 20 33S0 28.712 0 23.408V17h1v6.408c0 2.047 1.762 4.192 5.29 5.883C9.747 30.948 14.593 32 20 32s10.253-1.052 13.71-2.709C37.239 27.6 39 25.455 39 23.408z" fill="#000"/><path fill-rule="evenodd" clip-rule="evenodd" d="M39 29.808V23h1v6.808C40 35.444 31.045 40 20 40S0 35.444 0 29.808V23h1v6.808c0 2.245 1.806 4.533 5.312 6.319C9.763 37.885 14.602 39 20 39c5.398 0 10.236-1.115 13.688-2.873C37.194 34.34 39 32.053 39 29.808z" fill="#000"/></svg>
